!!!ONB: MCCC : ICS0078_04 : Extracted Monophonic Melody
!!!COM: Saint-Saëns, Camille
!!!OPR: Six Études pour la main gauche seule
!!!OMV: 4
!!!SCT: Op.135
!!!ODT: 1912///
**kern
*staff1
*clefG2
*k[b-e-]
*B-:
*M4/4
4d
=1
4g
4r
4r
4g
=2
4g
4f#
4r
4d
=3
4a
4r
4r
4a
=4
4a
4g
4r
8bb-
8gg
=5
8aa
8ff
8dd
8a
4d
8gg
8ee-
=6
8ff
8dd
8b-
8f
4B-
8ee-
8cc
=7
4dd
8b-
8dd
8a
8dd
8g
8dd
=8
8a
8dd
8ff#
8aa
4ddd
4dd
=9
4gg
4r
4r
4gg
=10
4gg
4ff
4ff
4ee-
=11
4ee-
4dd
4dd
4cc
=12
2ff
8d
8b-
8ff
8b-
=13
8e-
8b-
8gg
8b-
2r
=14
2r
8d
8b-
8ff
8b-
=15
8e-
8b-
8gg
8b-
2r
=16
1r
=17
8e-
8f
8a
8cc
8ee-
8dd
8ee-
8cc
=18
8dd
8ff
8bb-
8ddd
4fff
4d
=19
4r
4gg
4r
4a
=20
8b-
8f
8d
8B-
4r
4d
=21
4g
4r
4r
4g
=22
4g
4f#
4r
4d
=23
4a
4r
4r
4a
=24
4a
4g
4r
8bb-
8gg
=25
8aa
8ff
8dd
8a
4d
8gg
8ee-
=26
8ff
8dd
8b-
8f
4B-
8ee-
8cc
=27
4dd
8b-
8dd
8a
8dd
8g
8dd
=28
8a
8dd
8ff#
8aa
4ddd
4dd
=29
4gg
4r
4r
4gg
=30
4gg
4ff
4ff
4ee-
=31
4ee-
4dd
4dd
4cc
=32
2ff
8d
8b-
8ff
8b-
=33
8e-
8b-
8gg
8b-
2r
=34
2r
8d
8b-
8ff
8b-
=35
8e-
8b-
8gg
8b-
2r
=36
1r
=37
8e-
8f
8a
8cc
8ee-
8dd
8ee-
8cc
=38
8dd
8ff
8bb-
8ddd
4fff
4d
=39
4r
4gg
4r
4a
=40
8b-
8f
8d
8B-
4r
4dd
=41
2dd
4cc
4dd
=42
2ff
4ee-
4dd
=43
2dd
2cc
=44
2.cc
4cc
=45
2cc
4b-
4cc
=46
2ee-
4dd-
4cc
=47
2cc
2b-
=48
2.b-
4b-
=49
8d-
8f#
8b-
8f#
8d-
8f
8a-
8f
=50
8d-
8a-
8b
8g#
8a
8f#
8d-
8c
=51
8d-
8f#
8a
8f#
8d
8f#
8a
8f#
=52
8cc
8a
8f#
8d
8e-
8g
8b-
8g
=53
8dd
8b-
8g
8e
8f
8a
8cc
8a
=54
8ee-
8cc
8a
8f#
8g
8b-
8ee-
8b-
=55
8cc
8ee-
8aa-
8cc
8b-
8ee-
8gg
8b-
=56
4r
4ff
4r
4ee-
=57
4r
4dd
4r
4ee-
=58
4r
4dd
4r
4ee-
=59
8f#
8a
8cc
8a
8dd
8a
8dd
8cc
=60
8ff#
8dd
8aa
8ff#
4ccc
4r
=61
4r
8B-
8c
4d
4g
=62
4g
4f#
4cc
4r
=63
4r
8c
8d
4e-
4r
=64
4a
4g
4dd
8b-
8g
=65
8a
8f
8d
8A
4r
8g
8e-
=66
8f
8d
8B-
8F
4BB-
8E-
8C
=67
4D
8BB-
8D
8AA
8D
8GG
8D
=68
8AA
8D
8F#
8A
4d
4r
=69
2e-
2e
=70
2f
2f#
=71
2g
4a
4a
=72
8d
4b-
8a
8g
8f
8e-
8d
=73
8g
8f
8e-
8d
8c
8B-
8e-
8d
=74
1r
=75
1r
=76
4dd
4d
4ddd
4ff#
=77
4gg
8bb-
8ccc
4ddd
4f#
=78
4g
8b-
8cc
4dd
4F#
=79
4G
4r
4g
4r
=80
*M2/4
4gg
4r
=81
4d
4g
=82
*M4/4
4e
4g
4f#
4a
=83
4g
4d
4g
4b
=84
4a
4d
4a
4cc
=85
4b
4g
4d
4g
=86
4e
4g
4f#
4a
=87
4g
4d
4f#
4d#
=88
4e
4c
4A
4d
=89
4c
4B
4d
4g
=90
4e
4g
4f#
4a
=91
4g
4d
4g
4b
=92
4a
4d
4a
4cc
=93
4b
4g
4e-
4g
=94
4e
4a
4f
4b
=95
4g
4cc
4f#
4b
=96
4e
4a
4d
4f#
=97
4d
4g
4d
4e
=98
4f
4f#
4g
4d
=99
4f
4e
4a-
4d
=100
4f
4e
4a
4d
=101
4f
4e
4f
4f#
=102
4g
4a-
4a
4e
=103
4g
4f#
4b-
4e
=104
4g
4f#
4b
4e
=105
4g
4f#
4cc
4r
=106
4cc
4r
4dd
4r
=107
4ee-
4r
4ee
4r
=108
4dd
4r
4cc
4r
=109
4b
4r
4cc
4r
=110
4b
4r
4a
4r
=111
4g#
4r
4a
4r
=112
4a
4r
4g
4r
=113
4f#
4r
4r
4g
=114
4e
4g
4f#
4a
=115
4g
4d
4g
4b
=116
4a
4d
4a
4cc
=117
4b
4g
4d
4g
=118
4e
4g
4f#
4a
=119
4g
4d
4f#
4d#
=120
4e
4c
4A
4d
=121
4c
4B
4d
4g
=122
4e
4g
4f#
4a
=123
4g
4d
4g
4b
=124
4a
4d
4a
4cc
=125
4b
4g
4r
4dd
=126
4r
4ccc
4r
4bb
=127
4r
4aa
4r
4gg
=128
4r
4gg
4r
4ff#
=129
8r
8gg
4r
2r
=130
4r
8b-
8cc
4dd
4gg
=131
4gg
4ff#
4ccc
4r
=132
4r
8cc
8dd
4ee-
4aa
=133
4aa
4gg
4ddd
8bb-
8gg
=134
8aa
8ff
8dd
8a
4r
8gg
8ee-
=135
8ff
8dd
8b-
8f
4B-
8ee-
8cc
=136
4dd
8b-
8dd
8a
8dd
8g
8dd
=137
8a
8dd
8ff#
8aa
4ddd
4r
=138
2r
4r
4gg
=139
4gg
4ff
4ff
4ee-
=140
4ee-
4dd
4dd
4cc
=141
2ff
8d
8b-
8ff
8b-
=142
8e-
8b-
8gg
8b-
2r
=143
2r
8d
8b-
8ff
8b-
=144
8e-
8b-
8gg
8b-
2r
=145
1r
=146
2r
8ee-
8dd
8ee-
8cc
=147
8dd
8ff
8bb-
8ddd
4fff
4r
=148
4r
4gg
4r
4aa
=149
8bb-
8ff
8dd
8b-
2r
=150
2dd
4cc
4dd
=151
2ff
4ee-
4dd
=152
2dd
2cc
=153
2.ee-
4ee-
=154
2ee-
4dd-
4ee-
=155
2ff#
4ee
4ee-
=156
2ee-
2dd-
=157
2.ee
4ee
=158
8g
8cc
8ee
8cc
8g
8b
8dd
8b
=159
8a-
8dd
8ff
8dd
8ee
8dd-
8a-
8g
=160
8a-
8dd-
8ee
8dd-
8a
8dd-
8ee
8dd-
=161
8gg
8ee
8dd-
8a
8b-
8dd
8ff
8dd
=162
8aa
8ff
8dd
8b
8cc
8ee
8gg
8ee
=163
8bb-
8gg
8ee
8cc#
8dd
8ff
8bb-
8ff
=164
8cc
8ee-
8aa
8ee-
8b-
8ee-
8gg
8ee-
=165
4r
4ff
4r
4ee-
=166
4r
4dd
4r
4ee-
=167
4r
4dd
4r
4ee-
=168
8f#
8a
8cc
8dd
8ff#
8dd
8aa
8ff#
=169
8ccc
8aa
8fff#
8ddd
4aaa
4ddd
=170
4ggg
4r
4r
4gg
=171
4gg
4ff#
4r
4dd
=172
4aa
4r
4r
4aa
=173
4aa
4gg
4r
8bb-
8gg
=174
8aa
8ff
8dd
8a
4r
8ggg
8eee-
=175
8fff
8ddd
8bb-
8ff
4r
8eee-
8ccc
=176
4ddd
8bb-
8ddd
8aa
8ddd
8gg
8ddd
=177
8aa
8ff#
8dd
8a
4r
4ddd
=178
2eee-
2eee
=179
2fff
2fff#
=180
2ggg
2aaa
=181
4r
4bbb-[
8bbb-]
8aaa
8ggg
8fff
=182
8eee-
8ddd
8ggg
8fff
8eee-
8ddd
8ccc
8bb-
=183
4eee-
4r
2r
=184
1r
=185
4ddd
4dd
4dddd
4fff#
=186
4ggg
8bbb-
8cccc
4dddd
4ff#
=187
4gg
8bb-
8ccc
4ddd
4f#
=188
4g
4r
4ggg
4r
=189
2r
4d
4f#
=190
4e
4g
4f#
4a
=191
4g
4d
4g
4b
=192
4a
4d
4a
4cc
=193
4b
4g
4dd
4ff#
=194
4ee
4gg
4ff#
4aa
=195
4gg
4dd
4gg
4bb
=196
4aa
4dd
4aa
4ccc
=197
4bb
4gg
4ddd
4ggg
=198
4eee
4ggg
4fff#
4aaa
=199
4aaa-
4fff
4ggg
4eee
=200
4fff#
4eee-
4fff
4ddd
=201
4eee
4ddd-
4eee-
4ccc
=202
4ddd
4bb
4ccc
4aa
=203
8bb
8gg
8dd
8b
8g
8b
8dd
8gg
=204
8ddd
8bb
8gg
8dd
8b
8dd
8gg
8bb
=205
8ggg
8ddd
8bb
8gg
8dd
8gg
8bb
8ddd
=206
8bbb
8ggg
8ddd
8bb
8gg
8bb
8ddd
8ggg
=207
4dddd
4r
4ddd
4r
=208
4ggg
4r
2r
=209
1r
=210
1r
==
*-
